X:1
T:James Gibb editions
T:Eram quasi agnus innocens - Lasso
T:#
%%score [ 1 2 3 4 ]
L:1/8
Q:1/4=90
M:4/4
K:Bb
V:1 treble nm="S" snm="S"
V:2 treble nm="A" snm="A"
V:3 treble-8 nm="T" snm="T"
V:4 bass nm="B" snm="B"
V:1
"^Eram quasi agnus innocens""^Orlando di Lasso\n(1532-94)" G4 G2 A2- | A2 B2 c4 | B2 B4 _A2 | %3
w: E- ram qua\-|* si a-|gnus in- no-|
 G4 z2 B2- | B2 c4 d2- | d2 e2 d2 d2 | (cB B !courtesy!=A/ G/ A4) |[M:4/4] G4 G4 | _A4 G4 | %9
w: cens; du\-|* ctus sum|* ad im- mo-|lan\- * * * * *|dum, et|ne- sci-|
 c4 =B4 | z2 c2 =A3 A | B2 B2 G4 | c4 z2 B2- | B2 B2 B2 B2 | B4 A4 | z4 z2 G2- | G2 (e3 d c2- | %17
w: e- bam:|con- si- li-|um fe- ce-|runt, i\-|* ni- mi- ci|me- i|ad\-|* ver\- * *|
 c2) B2 _A2 A2 | G8 | G8 ||S e4 d4 | c2 =B2 c2 d2 | e4 d2 c2- | c2 B4 _A2 | G4 G2 G2 | %25
w: * sum me, di-|cen-|tes:|Ve- ni-|te, mit- ta- mus|li- gnum, in|* pa- nem|e- jus, et|
 B2 B2 d2 G2 | B4 !courtesy!=A2 A2 | B4 G2 d2 | (cBAB cd e2- | ed c4) =B2 | c8!fine! |] z4 d4 | %32
w: e- ra- da- mus|e- um de|ter- ra vi-|ven\- * * * * * *|* * * ti-|um.|O-|
 d4 z2 B2 | A2 B4 F2 | A2 (B3 cde | f4 z2 e2 | d2 c2 d2 G2- | G2 A2 c2 G2 | _A4 G2 (c2- | %39
w: mnes i-|ni- mi- ci|me- i * * *|* ad-|ver- sum me co\-|* gi- ta- bant|ma- la mi\-|
 cB B3 A/ G/ A2) | B2 d2 d2 d2 | B4 A4 | z2 A2 B2 dc | BA B2) A4 | z2 c2 e2 d2 | c2 (G3 A B2- | %46
w: |hi; ver- bum i-|ni- quum|man- da- ve\- *|* * * runt|ad- ver- sum|me, di\- * *|
 B2) e4 (d2- | dc c3 =B/ A/ B2) | c8!D.S.! |] %49
w: * cen\- *||tes:|
V:2
 E4 D2 F2- | F2 G2 _A4 | F4 F3 F | =E4 F4 | G4 !courtesy!=A4 | B3 B B2 (A2- | AG G3 ^F/ =E/ F2) | %7
w: E- ram qua\-|* si a-|gnus in- no-|cens; du-|ctus sum|ad im- mo- lan\-||
[M:4/4] G2 C2 D2 =E2 | F2 C2 z2 C2 | _E2 F2 G4 | G4 z2 F2 | D3 D C4- | C2 C2 (F4 | G4 F2 G2- | %14
w: dum, et ne- sci-|e- bam, et|ne- sci- e-|bam: con-|si- li- um|* fe- ce\-|* runt, i\-|
 G2 G2 (FEDC | B,2) C3 _B,/ A,/ B,2) | E2 C2 z2 C2 | E2 D2 F2 F2 | E8 | D8 || G4 G2 D2 | F2 G4 B2 | %22
w: * ni- mi\- * * *|* ci * * *|me- i ad-|ver- sum me, di-|cen-|tes:|Ve- ni- te,|mit- ta- mus|
 B4 B2 _A2 | G6 F2 | D4 E2 E2 | F2 G2 F2 (E2- | ED G4) ^F2 | G2 G2 B4 | A2 F2 G2 c2 | B2 G2 G2 G2 | %30
w: li- gnum, in|pa- nem|e- jus, et|e- ra- da- mus|* * * e-|um de ter-|ra vi- ven- ti-|um, vi- ven- ti-|
 =E8 |] z8 | z8 | z8 | z8 |[M:4/4] z8 | z8 | z8 | z8 | z8 | z8 | z8 |[M:4/4] z8 | z8 | z8 | z8 | %46
w: um.||||||||||||||||
 z8 | z8 | z8 |] %49
w: |||
V:3
 c4 B2 c2- | c2 e2 e4- | e2 d2 c3 c | c4 d4 | !courtesy!_e4 f4 | g4 g2 f2 | e4 d4 | %7
w: E- ram qua\-|* si a\-|* gnus in- no-|cens; du-|ctus sum|ad im- mo-|lan- dum,|
[M:4/4][K:treble-8] e4 d2 c2- | c2 (f3 _e/ d/ e2) | c4 d4 | e3 e c4 | z2 g2 =e3 e | f2 f2 (d4 | %13
w: et ne- sci\-|* e\- * * *|bam: con-|si- li- um,|con- si- li-|um fe- ce\-|
 !courtesy!_e4 d2 d2 | e2 d4 f2 | (g2 fe d4) | c2 G2 cdef | g4) c4 | c2 c2 c4 | =B8 || c4 =B4 | %21
w: * runt, i-|ni- mi- ci|me\- * * *|i ad- ver\- * * *|* sum|me, di- cen-|tes:|Ve- ni-|
 c2 d2 e2 f2 | g4 f4 | e2 d2 e2 (c2- | c =B/ A/ B2) c2 c2 | d2 e2 B2 c2 | G4 d4 | d4 e2 f2- | %28
w: te, mit- ta- mus|li- gnum,|in pa- nem e\-|* * * * jus, et|e- ra- da- mus|e- um|de ter- ra|
 f2 (cd ef g2- | gf e2) d2 d2 | c8 |] g4 g4 | z2 d2 e2 d2- | d2 g2 e2 (d2- | dcBA G4) | %35
w: * vi\- * * * *|* * * ven- ti-|um.|O- mnes|i- ni- mi\-|* ci me- i||
 z2 A2 B2 c2 | B2 f4 e2 | c2 f2 =e4 | f2 (c3 d_ec | d3 e c4) | B8 | z2 d2 d2 d2 | f4 g4 | %43
w: ad- ver- sum|me co- gi-|ta- bant ma-|la mi\- * * *||hi;|ver- bum i-|ni- quum|
 z2 g2 f2 (d=e | ^fg f2) g4 | z2 e2 c2 d2 | e2 c2 (g4 | f3 e d4) | c8 |] %49
w: man- da- ve\- *|* * * runt|ad- ver- sum|me, di- cen\-||tes:|
V:4
 C,4 G,2 F,2- | F,2 E,2 _A,4 | B,4 F,3 F, | C,4 z4 | z8 | z8 | z8 |[M:4/4] C4 =B,2 C2 | %8
w: E- ram qua\-|* si a-|gnus in- no-|cens;||||et ne- sci-|
 (F,4 C3 B, | _A,4) G,2 G,2 | C3 C F,2 F,2 | G,4 C,2 C2 | A,3 A, B,2 B,2 | E,4 B,2 G,2- | %14
w: e\- * *|* bam: con-|si- li- um fe-|ce- runt, con-|si- li- um fe-|ce- runt, i\-|
 G,2 G,2 D,2 D,2 | (E,2 D,C, G,4) | C,2 C,2 _A,4 | G,4 F,2 F,2 | C,8 | G,8 || C,4 G,4 | %21
w: * ni- mi- ci|me\- * * *|i ad- ver-|sum me, di-|cen-|tes:|Ve- ni-|
 _A,2 G,2 C2 B,2 | (E,F,G,_A, B,2) F,2 | G,4 E,2 F,2 | G,4 C,4 | z8 | z4 D,4 | G,4 E,2 B,2 | %28
w: te, mit- ta- mus|li\- * * * * gnum,|in pa- nem|e- jus,||de|ter- ra vi-|
 (F,3 E,/ D,/ C,3 D, | E,3 F, G,2)"^A quanti già felici -Lasso" G,2 | C,8 |] z8 | z8 | z8 | z8 | %35
w: ven\- * * * *|* * * ti-|um.|||||
[M:4/4] z8 | z8 | z8 | z8 | z8 | z8 | z8 |[M:4/4] z8 | z8 | z8 | z8 | z8 | z8 | z8 |] %49
w: ||||||||||||||

